src/pos-icons/folder-plus-outline.svg

<svg height="24" viewBox="0 0 24 24" width="24" xmlns="http://www.w3.org/2000/svg"><path d="m12 12h2v-2h2v2h2v2h-2v2h-2v-2h-2zm10-4v10c0 1.11-.89 2-2 2h-16c-1.11 0-2-.89-2-2v-12c0-1.11.89-2 2-2h6l2 2h8c1.11 0 2 .89 2 2m-2 0h-16v10h16z"/></svg>

<?xml version="1.0" encoding="UTF-8"?><!DOCTYPE svg PUBLIC "-//W3C//DTD SVG 1.1//EN" "http://www.w3.org/Graphics/SVG/1.1/DTD/svg11.dtd"><svg xmlns="http://www.w3.org/2000/svg" xmlns:xlink="http://www.w3.org/1999/xlink" version="1.1" id="mdi-folder-plus-outline" width="24" height="24" viewBox="0 0 24 24"><path d="M12 12H14V10H16V12H18V14H16V16H14V14H12V12M22 8V18C22 19.11 21.11 20 20 20H4C2.89 20 2 19.11 2 18V6C2 4.89 2.89 4 4 4H10L12 6H20C21.11 6 22 6.89 22 8M20 8H4V18H20V8Z" /></svg>
